src/_public/img/play.svg

<svg width="15" height="20" viewBox="0 0 15 20" fill="none" xmlns="http://www.w3.org/2000/svg">
<path d="M0 2.98963C0 2.01846 0 1.53288 0.20249 1.26521C0.378894 1.03202 0.648522 0.88772 0.940398 0.870293C1.27544 0.850289 1.67946 1.11964 2.48752 1.65835L13.0031 8.66872C13.6708 9.11384 14.0046 9.3364 14.1209 9.61693C14.2227 9.86218 14.2227 10.1378 14.1209 10.3831C14.0046 10.6636 13.6708 10.8862 13.0031 11.3313L2.48752 18.3417C1.67946 18.8804 1.27544 19.1497 0.940398 19.1297C0.648522 19.1123 0.378894 18.968 0.20249 18.7348C0 18.4671 0 17.9815 0 17.0104V2.98963Z" fill="currentColor"/>
</svg>

<svg width="15" height="20" viewBox="0 0 15 20" fill="none" role="img" xmlns="http://www.w3.org/2000/svg">
  <path d="M0 2.99c0-.972 0-1.457.202-1.725A1 1 0 0 1 .94.87c.335-.02.74.25 1.548.788l10.515 7.01c.668.446 1.002.668 1.118.949a1 1 0 0 1 0 .766c-.116.28-.45.503-1.118.948l-10.515 7.01c-.809.54-1.213.809-1.548.789a1 1 0 0 1-.738-.395C0 18.467 0 17.982 0 17.01V2.99Z" fill="currentColor"/>
</svg>
